!!!OTL: ICH SEHE OFT UM MITTERNACHT
!!!ARE: Europa, Mitteleuropa, Deutschland
!!!SCT: B0241
!!!YEM: Copyright 1995, estate of Helmut Schaffrath.
**kern
*ICvox
*Ivox
*M4/4
*k[f#]
*G:
{4d
=1
4g
4a
4b
4cc
=2
4.dd
8cc
4b}
{4a
=3
4g
4f#
4g
4b
=4
2a
4r}
{4d
=5
4.cc
8b
4a
4a
=6
4.dd
8cc
4b}
{4d
=7
4e
8cc
8a
4g
4f#
=8
2g
4r}
==
!!!AGN: Tageszeiten - Lied, Abend
!!!ONB: ESAC (Essen Associative Code) Database: BOEHME
!!!AMT: simple quadruple
!!!AIN: vox
!!!EED: Helmut Schaffrath
!!!EEV: 1.0
*-
